assets/Pinching hand/Light/Flat/pinching_hand_flat_light.svg

<svg width="32" height="32" viewBox="0 0 32 32" fill="none" xmlns="http://www.w3.org/2000/svg">
<path d="M24.1094 14.6094C25.4544 13.6156 27.2039 13.8119 28.2969 15.2032C30.2488 17.6878 27.7538 19.8163 25.85 21.4404C25.3881 21.8344 24.961 22.1987 24.6406 22.5313C23.7696 23.3412 23.065 24.0427 22.4216 24.6835C21.7492 25.353 21.1435 25.9561 20.4844 26.5469C18.0695 28.7115 15.6163 29.9375 12.4062 29.9375C6.03125 29.9375 2.25 25.5625 2.25 18.9463L2.17601 14.905C2.13238 14.7181 2.10938 14.5239 2.10938 14.3246V10.6754C2.10938 9.20002 3.37087 8.00002 4.92188 8.00002C5.80326 8.00002 6.59114 8.38752 7.10717 8.99286C7.43583 7.86017 8.48265 7.03001 9.72 7.03001C10.7524 7.03001 11.6522 7.60322 12.1128 8.44965C12.5979 7.58547 13.5234 7.00002 14.5826 7.00002C15.819 7.00002 16.8732 7.79149 17.2574 8.90149C19.3064 5.35714 22.5406 3.94797 26.5 5.60939C28.0781 6.35937 28.0325 7.99747 27.8281 8.75003C27.5362 9.82524 26.4099 11.2899 24.6797 10.8516C23.574 10.5715 22.4453 10.5313 22.4453 11.8516L22.4141 14.4922C22.4141 16.1625 22.9681 15.6439 23.5931 15.059C23.7632 14.8998 23.9385 14.7356 24.1094 14.6094Z" fill="#FFD7C2"/>
<path d="M17.2703 8.87919C17.4062 9.2762 17.5156 9.82554 17.5156 10.6875V11.8984C17.8854 10.1302 19.325 6.29375 22.125 5.09375H21.8363C19.988 5.55049 18.4378 6.86957 17.2703 8.87919Z" fill="#F1B99B"/>
<path d="M2.15759 14.8197C2.40234 16.0593 3.54861 17 4.92183 17C5.57674 17 6.18003 16.7861 6.65852 16.4278C6.30651 15.8532 6 14.9845 6 14.1094V9.81251C6 9.1658 6.14236 8.66073 6.29565 8.34131C6.60982 8.50926 6.88683 8.73296 7.11176 8.9982L7.10798 9.01071C7.05 9.2048 7 9.47432 7 9.81251V14.1094C7 14.6573 7.16345 15.219 7.36864 15.6431L7.36766 15.6448C7.78614 16.3634 8.52439 16.8737 9.38613 16.9796C9.66667 16.9659 9.96189 16.9537 10.268 16.9445C10.6983 16.8562 11.0919 16.6659 11.4223 16.4001C11.1157 15.836 10.9062 15.0935 10.9062 14.3047C10.9062 13.7455 10.9207 12.6947 10.935 11.6917L10.9388 11.426C10.9517 10.5192 10.9636 9.69274 10.9636 9.34376C10.9636 8.59573 11.133 8.02478 11.4255 7.62848C11.7036 7.85162 11.9368 8.12823 12.1092 8.44283C12.0274 8.6406 11.9636 8.92948 11.9636 9.34376C11.9636 9.70046 11.9516 10.5339 11.9387 11.4354L11.9349 11.706C11.9205 12.7124 11.9062 13.7545 11.9062 14.3047C11.9062 14.7572 11.9949 15.1844 12.1288 15.5426L12.1299 15.5405C12.6195 16.3881 13.5357 16.96 14.5825 16.96C15.9185 16.96 17.0418 16.0286 17.3368 14.7812H17.375C17.375 15.8103 17.3038 16.8282 16.95 17.6097C17.3487 17.7426 17.7224 17.8999 18.0608 18.0857C18.2455 18.187 18.3468 18.3933 18.3141 18.6014C18.2815 18.8095 18.1221 18.9747 17.9154 19.0148L17.9136 19.0151L17.9044 19.017L17.8632 19.0257C17.8258 19.0338 17.769 19.0465 17.6947 19.0644C17.5461 19.1002 17.3275 19.1567 17.0542 19.2384C16.507 19.4018 15.7429 19.6653 14.8817 20.0637C13.1548 20.8625 11.0651 22.1907 9.53878 24.3156C9.37768 24.5399 9.06527 24.5911 8.84099 24.43C8.61671 24.2689 8.5655 23.9565 8.7266 23.7322C10.3877 21.4197 12.6418 19.9979 14.4618 19.1561C14.5599 19.1107 14.6567 19.067 14.7523 19.0249C14.6756 19.0291 14.5967 19.0312 14.5156 19.0312C13.0778 19.0312 12.3582 18.3827 12.1004 17.9333C12.0461 17.9321 11.9918 17.9312 11.9377 17.9303C11.6241 18.5055 10.7169 19.0312 9.79683 19.0312C8.64683 19.0312 7.7187 18.3125 7.4687 17.75C7.07808 18.3125 6.37495 19.0312 5.12495 19.0312C2.77902 19.0312 2.2015 15.8806 2.15759 14.8197Z" fill="#F1B99B"/>
</svg>

<svg xmlns="http://www.w3.org/2000/svg" width="32" height="32" fill="none"><path fill="#FFD7C2" d="M24.11 14.61c1.344-.994 3.094-.798 4.187.593 1.952 2.485-.543 4.613-2.447 6.237-.462.394-.889.759-1.21 1.091a85.523 85.523 0 0 0-2.218 2.152c-.673.67-1.279 1.273-1.938 1.864-2.415 2.165-4.868 3.39-8.078 3.39-6.375 0-10.156-4.375-10.156-10.99l-.074-4.042a2.55 2.55 0 0 1-.067-.58v-3.65C2.11 9.2 3.371 8 4.922 8c.881 0 1.67.388 2.185.993a2.725 2.725 0 0 1 5.006-.543 2.83 2.83 0 0 1 5.145.452c2.048-3.545 5.283-4.954 9.242-3.293 1.578.75 1.532 2.388 1.328 3.141-.292 1.075-1.418 2.54-3.148 2.102-1.106-.28-2.235-.32-2.235 1l-.03 2.64c0 1.67.553 1.152 1.178.567.17-.16.346-.323.516-.45Z"/><path fill="#F1B99B" d="M17.27 8.88c.136.396.246.946.246 1.807v1.211c.37-1.768 1.809-5.604 4.609-6.804h-.289c-1.848.456-3.398 1.776-4.566 3.785ZM2.158 14.82C2.402 16.06 3.548 17 4.922 17a2.89 2.89 0 0 0 1.737-.572A4.665 4.665 0 0 1 6 14.109V9.813c0-.647.142-1.152.296-1.472.314.168.59.392.816.657l-.004.013A2.815 2.815 0 0 0 7 9.813v4.296c0 .548.163 1.11.369 1.534l-.001.002a2.725 2.725 0 0 0 2.018 1.335c.28-.014.576-.026.882-.035a2.71 2.71 0 0 0 1.154-.545 4.472 4.472 0 0 1-.516-2.095c0-.56.015-1.61.029-2.613l.004-.266c.013-.907.025-1.733.025-2.082 0-.748.169-1.32.461-1.716.279.224.512.5.684.815-.082.198-.145.486-.145.9 0 .357-.012 1.19-.025 2.092l-.004.271a236.33 236.33 0 0 0-.029 2.599c0 .452.089.88.223 1.238v-.002a2.833 2.833 0 0 0 2.454 1.419c1.335 0 2.459-.931 2.754-2.179h.038c0 1.03-.071 2.047-.425 2.829.399.133.772.29 1.11.476a.5.5 0 0 1-.145.929h-.001l-.01.002-.04.009c-.038.008-.095.02-.17.038-.148.036-.366.093-.64.174-.547.164-1.311.427-2.172.826-1.727.799-3.817 2.127-5.343 4.252a.5.5 0 1 1-.812-.584c1.66-2.312 3.915-3.734 5.735-4.576l.29-.131a4.33 4.33 0 0 1-.236.006c-1.438 0-2.158-.648-2.416-1.098l-.162-.003c-.314.576-1.221 1.101-2.141 1.101-1.15 0-2.078-.718-2.328-1.281-.39.563-1.094 1.281-2.344 1.281-2.346 0-2.924-3.15-2.967-4.211Z"/></svg>
